Origami/64x64/apps/eclipse.svg

<svg width="64" height="64" version="1" xmlns="http://www.w3.org/2000/svg">
 <path d="m0.05077873 32.000725c-0.01173771 0.333992-0.05077873 0.661983-0.05077873 0.999975-4.6324842e-7 15.511612 12.487688 27.9993 27.9993 27.9993s27.9993-12.487688 27.9993-27.9993c0-0.337992-0.04-0.665983-0.05-0.999975-0.527986 15.041624-12.775679 26.999325-27.9493 26.999325-15.174021 0-27.421314-11.957701-27.949301-26.999325z" style="opacity:.2"/>
 <rect transform="matrix(0,-1,-1,0,0,0)" x="-60" y="-56" width="55.999" height="55.999" rx="27.999" ry="27.999" style="fill:#ffab30"/>
 <path d="m28 4.0019531c-15.511612 0-28 12.486435-28 27.998047-1.5563469e-7 0.113553 0.011280704 0.224035 0.017578125 0.335938 0.35254684-15.200463 12.694187-27.333985 27.982422-27.333985s27.629875 12.133522 27.982422 27.333985c0.006375-0.111903 0.017578-0.222385 0.017578-0.335938 0-15.511612-12.488388-27.998047-28-27.998047z" style="fill:#ffffff;opacity:.2"/>
 <path d="M 35.9991,61 C 20.487488,61 7.9998,48.512312 7.9998,33.0007 c 0,-0.337992 0.038999,-0.665983 0.050799,-0.999975 0.5273865,15.041624 12.77488,26.999325 27.949301,26.999325 15.174021,0 27.421314,-11.958501 27.949301,-26.999325 C 63.961201,32.335437 64,32.663028 64,33.0007 64,48.512312 51.512312,61 36.0007,61 Z" style="opacity:.2"/>
 <rect transform="matrix(0,-1,-1,0,0,0)" x="-60" y="-64" width="55.999" height="55.999" rx="27.999" ry="27.999" style="fill:#5e4095"/>
 <path d="m9.8591535 23.0005c-0.4921877 1.291968-0.9043774 2.621934-1.2031699 3.9999h54.686632c-0.299992-1.377966-0.711982-2.707932-1.20397-3.9999h-52.278692zm-1.757756 7.9998c-0.0234 0.331992-0.031199 0.669983-0.050799 1.003975 0.035599 1.013975 0.1255969 2.01195 0.2655934 2.995925h55.366616c0.139996-0.983975 0.229994-1.98195 0.265993-2.995925-0.02-0.333992-0.028-0.671983-0.052-1.003975h-55.794606zm1.0623734 7.9998c0.4099897 1.385965 0.9419761 2.713932 1.5507611 3.9999h50.570736c0.607985-1.285968 1.139971-2.613935 1.549961-3.9999h-53.670658z" style="opacity:.2"/>
 <path d="m9.8591535 22.001c-0.4921877 1.291968-0.9043774 2.621934-1.2031699 3.9999h54.686632c-0.299992-1.377966-0.711982-2.707932-1.20397-3.9999h-52.278692zm-1.757756 7.9998c-0.0465989 0.663983-0.1015975 1.323967-0.1015975 1.99995s0.054999 1.335967 0.1015975 1.99995h55.794606c0.046-0.663983 0.101997-1.323967 0.101997-1.99995s-0.056-1.335967-0.101997-1.99995h-55.794606zm0.5545861 7.9998c0.2987925 1.377966 0.7109822 2.707932 1.2031699 3.9999h52.278694c0.491987-1.291968 0.903977-2.621934 1.203969-3.9999h-54.686632z" style="fill:#ffffff;opacity:.8"/>
 <path d="m36 4.0019531c-15.511612 0-28 12.486435-28 27.998047 0 0.109465 0.0096834 0.216286 0.015625 0.324219 0.3586058-15.194992 12.700059-27.322266 27.984375-27.322266 15.288235 0 27.629875 12.133522 27.982422 27.333985 0.006271-0.111823 0.017578-0.222492 0.017578-0.335938 0-15.511612-12.488388-27.998047-28-27.998047z" style="fill:#ffffff;opacity:.1"/>
</svg>

<svg xmlns="http://www.w3.org/2000/svg" width="64" height="64" version="1">
 <path style="opacity:0.2" d="M 0.05077873,32.000725 C 0.03904102,32.334717 0,32.662708 0,33.0007 -4.6324842e-7,48.512312 12.487688,61 27.9993,61 43.510912,61 55.9986,48.512312 55.9986,33.0007 c 0,-0.337992 -0.04,-0.665983 -0.05,-0.999975 C 55.420614,47.042349 43.172921,59.00005 27.9993,59.00005 12.825279,59.00005 0.57798555,47.042349 0.04999875,32.000725 Z"/>
 <rect style="fill:#ffab30" width="55.999" height="55.999" x="-60" y="-56" rx="27.999" ry="27.999" transform="matrix(0,-1,-1,0,0,0)"/>
 <path style="opacity:0.2;fill:#ffffff" d="M 28 4.0019531 C 12.488388 4.0019531 -2.3684758e-15 16.488388 0 32 C -1.5563469e-07 32.113553 0.011280704 32.224035 0.017578125 32.335938 C 0.37012496 17.135475 12.711765 5.0019531 28 5.0019531 C 43.288235 5.0019531 55.629875 17.135475 55.982422 32.335938 C 55.988797 32.224035 56 32.113553 56 32 C 56 16.488388 43.511612 4.0019531 28 4.0019531 z"/>
 <path style="opacity:0.2" d="M 35.9991,61 C 20.487488,61 7.9998,48.512312 7.9998,33.0007 c 0,-0.337992 0.038999,-0.665983 0.050799,-0.999975 0.5273865,15.041624 12.77488,26.999325 27.949301,26.999325 15.174021,0 27.421314,-11.958501 27.949301,-26.999325 C 63.961201,32.335437 64,32.663028 64,33.0007 64,48.512312 51.512312,61 36.0007,61 Z"/>
 <rect style="fill:#5e4095" width="55.999" height="55.999" x="-60" y="-64" rx="27.999" ry="27.999" transform="matrix(0,-1,-1,0,0,0)"/>
 <path style="opacity:0.2" d="m 9.8591535,23.0005 c -0.4921877,1.291968 -0.9043774,2.621934 -1.2031699,3.9999 l 54.6866324,0 c -0.299992,-1.377966 -0.711982,-2.707932 -1.20397,-3.9999 l -52.2786925,0 z m -1.757756,7.9998 c -0.0234,0.331992 -0.031199,0.669983 -0.050799,1.003975 0.035599,1.013975 0.1255969,2.01195 0.2655934,2.995925 l 55.3666161,0 c 0.139996,-0.983975 0.229994,-1.98195 0.265993,-2.995925 -0.02,-0.333992 -0.028,-0.671983 -0.052,-1.003975 l -55.7946058,0 z m 1.0623734,7.9998 C 9.5737606,40.386065 10.105747,41.714032 10.714532,43 l 50.570736,0 c 0.607985,-1.285968 1.139971,-2.613935 1.549961,-3.9999 l -53.6706581,0 z"/>
 <path style="opacity:0.8;fill:#ffffff" d="m 9.8591535,22.001 c -0.4921877,1.291968 -0.9043774,2.621934 -1.2031699,3.9999 l 54.6866324,0 c -0.299992,-1.377966 -0.711982,-2.707932 -1.20397,-3.9999 l -52.2786925,0 z m -1.757756,7.9998 C 8.0547986,30.664783 7.9998,31.324767 7.9998,32.00075 c 0,0.675983 0.054999,1.335967 0.1015975,1.99995 l 55.7946055,0 c 0.046,-0.663983 0.101997,-1.323967 0.101997,-1.99995 0,-0.675983 -0.056,-1.335967 -0.101997,-1.99995 l -55.7946055,0 z m 0.5545861,7.9998 c 0.2987925,1.377966 0.7109822,2.707932 1.2031699,3.9999 l 52.2786935,0 c 0.491987,-1.291968 0.903977,-2.621934 1.203969,-3.9999 l -54.6866324,0 z"/>
 <path style="opacity:0.1;fill:#ffffff" d="M 36 4.0019531 C 20.488388 4.0019531 8 16.488388 8 32 C 8 32.109465 8.0096834 32.216286 8.015625 32.324219 C 8.3742308 17.129227 20.715684 5.0019531 36 5.0019531 C 51.288235 5.0019531 63.629875 17.135475 63.982422 32.335938 C 63.988693 32.224115 64 32.113446 64 32 C 64 16.488388 51.511612 4.0019531 36 4.0019531 z"/>
</svg>
